!!!OTL: Es haett ein Maidlein ein Reiter hold
!!!ARE: Europa, Mitteleuropa, Deutschland
!!!SCT: L0067F
!!!YEM: Copyright 1995, estate of Helmut Schaffrath.
**kern
*ICvox
*Ivox
*M3/4
*k[f#c#]
*D:
{4d
=1
2d
4d
=2
2a
4a
=3
2b
4b
=4
2a}
{4a
=5
2b
4b
=6
2dd
4a
=7
2ccn
4b
=8
[2.a
=9
8a]
8g
8a
8b}
{4ccn
=10
4.b
8ccn
4dd
=11
4.ccn
8b
4a
=12
4g
4e
4fn
=13
2e}
{4a
=14
2a
4ccn
=15
2a
4d
=16
4fn
2e
=17
2d}
==
!!!AGN: Lied
!! Souterliedekens 1540 ad Ps. 99
!!!ONB: ESAC (Essen Associative Code) Database: ERK5
!!!AMT: simple triple
!!!AIN: vox
!!!EED: Helmut Schaffrath
!!!EEV: 1.0
*-
